static/icons/vegas.svg

<?xml version="1.0" encoding="UTF-8" standalone="no"?>
<!DOCTYPE svg PUBLIC "-//W3C//DTD SVG 1.1//EN" "http://www.w3.org/Graphics/SVG/1.1/DTD/svg11.dtd">
<svg width="100%" height="100%" viewBox="0 0 3000 3000" version="1.1" xmlns="http://www.w3.org/2000/svg" xmlns:xlink="http://www.w3.org/1999/xlink" xml:space="preserve" xmlns:serif="http://www.serif.com/" style="fill-rule:evenodd;clip-rule:evenodd;stroke-linejoin:round;stroke-miterlimit:2;">
    <rect x="0" y="0" width="3000" height="3000" style="fill:url(#_Linear1);"/>
    <path d="M3000,0L0,0L0,3000L3000,3000L3000,0ZM2880,120L2880,2880C2880,2880 120,2880 120,2880C120,2880 120,120 120,120C120,120 2880,120 2880,120Z" style="fill:url(#_Radial2);"/>
    <g transform="matrix(1,0,0,1,-522.55,-63.4997)">
        <path d="M1650.03,858.893L2026.64,2066.5L2407.35,858.893L2586.44,858.893L2114.66,2268.11L1930.44,2268.11L1458.66,858.893L1650.03,858.893Z" style="fill:rgb(31,173,255);fill-rule:nonzero;"/>
    </g>
    <defs>
        <linearGradient id="_Linear1" x1="0" y1="0" x2="1" y2="0" gradientUnits="userSpaceOnUse" gradientTransform="matrix(2763.66,-2775.1,2775.1,2763.66,106.734,2887.55)"><stop offset="0" style="stop-color:rgb(10,10,10);stop-opacity:1"/><stop offset="1" style="stop-color:rgb(34,34,34);stop-opacity:1"/></linearGradient>
        <radialGradient id="_Radial2" cx="0" cy="0" r="1" gradientUnits="userSpaceOnUse" gradientTransform="matrix(3000,-3000,3000,3000,0,3000)"><stop offset="0" style="stop-color:rgb(25,140,255);stop-opacity:1"/><stop offset="0.47" style="stop-color:rgb(34,162,255);stop-opacity:1"/><stop offset="1" style="stop-color:rgb(56,218,255);stop-opacity:1"/></radialGradient>
    </defs>
</svg>

<?xml version="1.0" encoding="UTF-8" standalone="no"?><!DOCTYPE svg PUBLIC "-//W3C//DTD SVG 1.1//EN" "http://www.w3.org/Graphics/SVG/1.1/DTD/svg11.dtd"><svg width="100%" height="100%" viewBox="0 0 3000 3000" version="1.1" xmlns="http://www.w3.org/2000/svg" xmlns:xlink="http://www.w3.org/1999/xlink" xml:space="preserve" xmlns:serif="http://www.serif.com/" style="fill-rule:evenodd;clip-rule:evenodd;stroke-linejoin:round;stroke-miterlimit:2;"><rect x="0" y="0" width="3000" height="3000" style="fill:url(#_Linear1);"/><path d="M3000,0l-3000,0l0,3000l3000,0l0,-3000Zm-120,120l0,2760c0,0 -2760,0 -2760,0c-0,0 0,-2760 0,-2760c-0,0 2760,0 2760,-0Z" style="fill:url(#_Radial2);"/><text x="885.963px" y="2204.61px" style="font-family:'FiraCode-Regular', 'Fira Code', monospace;font-size:1995.62px;fill:#1fadff;">V</text><defs><linearGradient id="_Linear1" x1="0" y1="0" x2="1" y2="0" gradientUnits="userSpaceOnUse" gradientTransform="matrix(2763.66,-2775.1,2775.1,2763.66,106.734,2887.55)"><stop offset="0" style="stop-color:#0a0a0a;stop-opacity:1"/><stop offset="1" style="stop-color:#222;stop-opacity:1"/></linearGradient><radialGradient id="_Radial2" cx="0" cy="0" r="1" gradientUnits="userSpaceOnUse" gradientTransform="matrix(3000,-3000,3000,3000,0,3000)"><stop offset="0" style="stop-color:#198cff;stop-opacity:1"/><stop offset="0.47" style="stop-color:#22a2ff;stop-opacity:1"/><stop offset="1" style="stop-color:#38daff;stop-opacity:1"/></radialGradient></defs></svg>
